images/checkbox.svg

<svg width="16" height="16" viewBox="0 0 16 16" fill="none" xmlns="http://www.w3.org/2000/svg">
<g id="checkbox" clip-path="url(#clip0_36313_1238)">
<path id="Union" fill-rule="evenodd" clip-rule="evenodd" d="M1.61516 1.61532C1.79572 1.43477 2.0406 1.33333 2.29593 1.33333H13.7029C13.9447 1.33333 14.0431 1.36186 14.0976 1.38594C14.1553 1.41144 14.2282 1.45981 14.3837 1.61532C14.5909 1.82251 14.6657 2.04757 14.6657 2.29609V13.6647C14.665 13.677 14.6646 13.6895 14.6646 13.702C14.6646 13.9574 14.5632 14.2022 14.3826 14.3828C14.2021 14.5633 13.9572 14.6648 13.7019 14.6648H2.29593C2.0406 14.6648 1.79572 14.5633 1.61516 14.3828C1.43461 14.2022 1.33318 13.9574 1.33318 13.702V2.29609C1.33318 2.04075 1.43461 1.79587 1.61516 1.61532ZM15.8381 14.5437C15.7238 14.834 15.5504 15.1007 15.3255 15.3256C14.8949 15.7562 14.3108 15.9981 13.7019 15.9981H2.29593C1.68697 15.9981 1.10296 15.7562 0.672356 15.3256C0.241755 14.895 -0.000152588 14.311 -0.000152588 13.702V2.29609C-0.000152588 1.68713 0.241756 1.10311 0.672356 0.672508C0.898345 0.446519 1.16659 0.272503 1.45852 0.158153C1.57476 0.0595056 1.72526 0 1.88966 0H2.29593H13.7029C14.0404 0 14.3458 0.0379078 14.6365 0.16636C14.924 0.293391 15.1376 0.483641 15.3265 0.672511C15.808 1.15407 15.999 1.72989 15.999 2.29609V14.1094C15.999 14.2753 15.9384 14.427 15.8381 14.5437Z" fill="#2D3440"/>
</g>
<defs>
<clipPath id="clip0_36313_1238">
<rect width="16" height="16" fill="white"/>
</clipPath>
</defs>
</svg>

<svg xmlns="http://www.w3.org/2000/svg" width="16" height="16" fill="none"><g clip-path="url(#a)"><path fill-rule="evenodd" clip-rule="evenodd" d="M1.62 1.62a.96.96 0 0 1 .68-.29h11.4c.24 0 .34.03.4.06a1 1 0 0 1 .28.23c.21.2.29.43.29.68V13.7a.96.96 0 0 1-.97.96H2.3a.96.96 0 0 1-.97-.96V2.3c0-.26.1-.5.29-.68Zm14.22 12.92A2.3 2.3 0 0 1 13.7 16H2.3A2.3 2.3 0 0 1 0 13.7V2.3A2.3 2.3 0 0 1 1.46.16c.11-.1.27-.16.43-.16H13.7c.34 0 .65.04.94.17.28.12.5.31.69.5.48.48.67 1.06.67 1.63v11.8c0 .18-.06.33-.16.44Z" fill="#2D3440"/></g><defs><clipPath id="a"><path fill="#fff" d="M0 0h16v16H0z"/></clipPath></defs></svg>
